public/img/icons/settings.svg

<svg width="15" height="15" viewBox="0 0 15 15" fill="none" xmlns="http://www.w3.org/2000/svg">
<path d="M13.0301 8.29146C13.0301 8.06533 13.1055 7.8392 13.1055 7.53769C13.1055 7.23618 13.1055 7.01005 13.0301 6.78392L14.613 5.50251C14.7638 5.35176 14.7638 5.201 14.6884 5.05025L13.1809 2.41206C13.1055 2.33668 12.9548 2.26131 12.7286 2.33668L10.8442 3.09045C10.4673 2.78894 10.015 2.56281 9.56278 2.33668L9.26127 0.376884C9.33665 0.150754 9.11049 0 8.95976 0H5.94469C5.79391 0 5.56781 0.150754 5.56781 0.301508L5.2663 2.33668C4.81404 2.48744 4.43716 2.78894 3.9849 3.09045L2.17586 2.33668C1.94973 2.26131 1.79897 2.33668 1.64819 2.48744L0.140655 5.12563C0.0652779 5.201 0.140655 5.42714 0.291408 5.57789L1.87432 6.78392C1.87432 7.01005 1.79894 7.23618 1.79894 7.53769C1.79894 7.8392 1.79894 8.06533 1.87432 8.29146L0.291408 9.57286C0.140655 9.72365 0.140655 9.87437 0.216031 10.0252L1.72357 12.6633C1.79894 12.7387 1.94967 12.8141 2.17583 12.7387L4.06025 11.985C4.43713 12.2865 4.88939 12.5126 5.34165 12.7387L5.64316 14.6985C5.64316 14.8493 5.79391 15 6.02004 15H9.03511C9.18589 15 9.41199 14.8492 9.41199 14.6985L9.7135 12.7387C10.1658 12.5126 10.618 12.2865 10.9949 11.985L12.8793 12.7387C13.0301 12.8141 13.2562 12.7387 13.3316 12.5879L14.8391 9.94975C14.9145 9.799 14.9145 9.57286 14.7637 9.49749L13.0301 8.29146ZM7.45223 10.1759C6.02007 10.1759 4.81404 8.96985 4.81404 7.53769C4.81404 6.10553 6.02007 4.8995 7.45223 4.8995C8.88439 4.8995 10.0904 6.10553 10.0904 7.53769C10.0904 8.96985 8.88439 10.1759 7.45223 10.1759Z" fill="white"/>
</svg>

<svg width="15" height="15" viewBox="0 0 15 15" fill="none" xmlns="http://www.w3.org/2000/svg"><path d="M13.03 8.291c0-.226.075-.452.075-.753 0-.302 0-.528-.075-.754l1.583-1.281c.15-.151.15-.302.075-.453l-1.507-2.638c-.075-.075-.226-.15-.452-.075l-1.885.753c-.377-.301-.829-.527-1.281-.753L9.26.377C9.337.15 9.111 0 8.96 0H5.945c-.151 0-.377.15-.377.302l-.302 2.035c-.452.15-.829.452-1.281.753l-1.81-.753c-.225-.076-.376 0-.527.15L.141 5.126c-.076.075 0 .301.15.452l1.583 1.206c0 .226-.075.452-.075.754 0 .301 0 .527.075.753L.291 9.573c-.15.15-.15.301-.075.452l1.508 2.638c.075.076.226.151.452.076l1.884-.754c.377.302.83.528 1.282.754l.301 1.96c0 .15.15.301.377.301h3.015c.15 0 .377-.15.377-.302l.301-1.96c.453-.225.905-.451 1.282-.753l1.884.754c.151.075.377 0 .453-.151l1.507-2.638c.075-.151.075-.377-.075-.453L13.03 8.291zm-5.578 1.885c-1.432 0-2.638-1.206-2.638-2.638S6.02 4.899 7.452 4.899s2.638 1.207 2.638 2.639c0 1.432-1.206 2.638-2.638 2.638z" fill="#fff"/></svg>
